assets/images/industries/9.svg

<svg xmlns="http://www.w3.org/2000/svg" viewBox="0 0 120 112.43"><defs><style>.cls-2{fill:#eb058c}.cls-2,.cls-4,.cls-5{stroke:#000;stroke-miterlimit:10}.cls-4{fill:#0077bf}.cls-5{fill:#ffe600}</style></defs><g id="Layer_2" data-name="Layer 2"><g id="tv"><path d="M106.5 14.17C104.28 11.74 95.73 2.36 81.64.47c-3-.4-17.09-2.29-26 6-11.74 11-1.81 28.07-11.87 41.16-8.65 11.25-25.08.26-36.17 11.5C1.84 65-1.22 74.85.81 82.21c6.34 23 68.94 45.86 100.87 16 23.25-21.79 22.7-64.43 4.82-84.04z" fill="#fff" id="Layer_9_copy_5" data-name="Layer 9 copy 5"/><rect y="96.12" width="120" height="2.13" rx="1.06" ry="1.06"/><g id="Layer_23" data-name="Layer 23"><path class="cls-2" d="M65.93 72.18h-10l2.45-10.53h5.13z"/><path class="cls-2" d="M72.11 72.85H49.73V69.1a1.1 1.1 0 0 1 1.1-1.1H71a1.1 1.1 0 0 1 1.1 1.1zM85.3 63.94H36.54a1.07 1.07 0 0 1-1.07-1.07V35.08A1.07 1.07 0 0 1 36.54 34H85.3a1.07 1.07 0 0 1 1.07 1.07v27.8a1.07 1.07 0 0 1-1.07 1.07z"/><path d="M38.9 60.1V37.86a.31.31 0 0 1 .31-.31h43.41a.31.31 0 0 1 .31.31V60.1a.31.31 0 0 1-.31.31h-43.4a.31.31 0 0 1-.32-.31z" fill="#f2f2f2" stroke="#000" stroke-miterlimit="10"/><path class="cls-4" d="M88.66 94.38l-2.91-14.59h-8.31l8.5 15.57a1.46 1.46 0 0 0 2.72-1zM33.18 94.38l2.91-14.59h8.31l-8.5 15.57a1.46 1.46 0 0 1-2.72-1z"/><path class="cls-4" d="M92.37 87.38h-62.9a1.11 1.11 0 0 1-1.11-1.11v-14a1.11 1.11 0 0 1 1.11-1.11h62.9a1.11 1.11 0 0 1 1.11 1.11v14a1.11 1.11 0 0 1-1.11 1.11z"/><path class="cls-5" d="M58.27 75.4H32.19a.69.69 0 0 0-.69.69v6.41a.69.69 0 0 0 .69.69h26.08a.69.69 0 0 0 .73-.69v-6.41a.69.69 0 0 0-.73-.69zM62.89 76.09v6.41a.69.69 0 0 0 .69.69h26.07a.69.69 0 0 0 .69-.69v-6.41a.69.69 0 0 0-.69-.69H63.57a.69.69 0 0 0-.68.69z"/><text transform="translate(54.9 52.78)" font-size="10" font-family="MyriadPro-Bold,Myriad Pro" font-weight="700"><tspan letter-spacing=".03em">T</tspan><tspan x="5.76" y="0">V</tspan></text></g></g></g></svg>

<svg xmlns="http://www.w3.org/2000/svg" viewBox="0 0 120 112.43"><defs><style>.cls-1{fill:#fff;}.cls-2{fill:#eb058c;}.cls-2,.cls-3,.cls-4,.cls-5{stroke:#000;stroke-miterlimit:10;}.cls-3{fill:#f2f2f2;}.cls-4{fill:#0077bf;}.cls-5{fill:#ffe600;}.cls-6{font-size:10px;font-family:MyriadPro-Bold, Myriad Pro;font-weight:700;}.cls-7{letter-spacing:0.03em;}</style></defs><title>tv</title><g id="Layer_2" data-name="Layer 2"><g id="tv"><g id="Layer_9_copy_5" data-name="Layer 9 copy 5"><path class="cls-1" d="M106.5,14.17C104.28,11.74,95.73,2.36,81.64.47c-3-.4-17.09-2.29-26,6-11.74,11-1.81,28.07-11.87,41.16-8.65,11.25-25.08.26-36.17,11.5C1.84,65-1.22,74.85.81,82.21c6.34,23,68.94,45.86,100.87,16C124.93,76.42,124.38,33.78,106.5,14.17Z"/></g><rect y="96.12" width="120" height="2.13" rx="1.06" ry="1.06"/><g id="Layer_23" data-name="Layer 23"><path class="cls-2" d="M65.93,72.18h-10l2.45-10.53h5.13Z"/><path class="cls-2" d="M72.11,72.85H49.73V69.1a1.1,1.1,0,0,1,1.1-1.1H71a1.1,1.1,0,0,1,1.1,1.1Z"/><path class="cls-2" d="M85.3,63.94H36.54a1.07,1.07,0,0,1-1.07-1.07V35.08A1.07,1.07,0,0,1,36.54,34H85.3a1.07,1.07,0,0,1,1.07,1.07V62.87A1.07,1.07,0,0,1,85.3,63.94Z"/><path class="cls-3" d="M38.9,60.1V37.86a.31.31,0,0,1,.31-.31H82.62a.31.31,0,0,1,.31.31V60.1a.31.31,0,0,1-.31.31H39.22A.31.31,0,0,1,38.9,60.1Z"/><path class="cls-4" d="M88.66,94.38,85.75,79.79H77.44l8.5,15.57a1.46,1.46,0,0,0,2.72-1Z"/><path class="cls-4" d="M33.18,94.38l2.91-14.59H44.4L35.9,95.36a1.46,1.46,0,0,1-2.72-1Z"/><path class="cls-4" d="M92.37,87.38H29.47a1.11,1.11,0,0,1-1.11-1.11v-14a1.11,1.11,0,0,1,1.11-1.11h62.9a1.11,1.11,0,0,1,1.11,1.11v14A1.11,1.11,0,0,1,92.37,87.38Z"/><path class="cls-5" d="M58.27,75.4H32.19a.69.69,0,0,0-.69.69V82.5a.69.69,0,0,0,.69.69H58.27A.69.69,0,0,0,59,82.5V76.09A.69.69,0,0,0,58.27,75.4Z"/><path class="cls-5" d="M62.89,76.09V82.5a.69.69,0,0,0,.69.69H89.65a.69.69,0,0,0,.69-.69V76.09a.69.69,0,0,0-.69-.69H63.57A.69.69,0,0,0,62.89,76.09Z"/><text class="cls-6" transform="translate(54.9 52.78)"><tspan class="cls-7">T</tspan><tspan x="5.76" y="0">V</tspan></text></g></g></g></svg>
